Obsidian-SemiLight/actions/24s/go-previous-use.svg

<svg viewBox="0 0 24 24" xmlns="http://www.w3.org/2000/svg"><path d="m4 4v6 1h15 1v-6-1h-1-14zm1 1h14v5h-14zm15 7-5 4 5 4zm-16 1v3h4v-3zm6 0v3h2v-3z" fill="#4d4d4d"/></svg>

<svg xmlns="http://www.w3.org/2000/svg" viewBox="0 0 24 24">
  <defs id="defs3051">
    <style type="text/css" id="current-color-scheme">
      .ColorScheme-Text {
        color:#4d4d4d;
      }
      </style>
  </defs>
 <path style="fill:currentColor;fill-opacity:1;stroke:none" 
     d="M 4 4 L 4 10 L 4 11 L 19 11 L 20 11 L 20 5 L 20 4 L 19 4 L 5 4 L 4 4 z M 5 5 L 19 5 L 19 10 L 5 10 L 5 5 z M 20 12 L 15 16 L 20 20 L 20 12 z M 4 13 L 4 16 L 8 16 L 8 13 L 4 13 z M 10 13 L 10 16 L 12 16 L 12 13 L 10 13 z "
     class="ColorScheme-Text"
     />
</svg>
